X:633
T:Reel 633
M:4/4
K:Ador
L:1/8
GF|EA, (3CB,A, EA,CA,|CDEF GEDB,|G,2B,G, DG,B,G,|CDEF G2FG|EA, (3CB,A, EA,CA,|CDEF G2FG|AFGE DB,G,B,|A,CB,G, A,2|CD|EAAG ABAG|EDEF GEDB,|G,2B,G, DG,B,G,|CDEF G2FG|EAAG ABAG|EDEF G2FG|AFGE DB,G,B,|A,CB,G, A,2|CD|EAAG AGAG|EDEF G2FG|EDEF G2GA|BGAG GFED|EDEF G2GA|BdBA GFEF|GDB,D GFED|EA,A,G, A,2|
